packages/core/src/svgs/klt.svg

<svg width="24" height="24" viewBox="0 0 24 24" fill="none" xmlns="http://www.w3.org/2000/svg">
<g clip-path="url(#clip0_31_12795)">
<path d="M0 0H24V24H0V0Z" fill="#240735"/>
<path fill-rule="evenodd" clip-rule="evenodd" d="M14.9272 6.85693H14.1429V8.4855C13.4572 7.91979 12.2743 7.28551 10.6715 7.28551H10.5986C9.59158 7.28781 8.60493 7.56944 7.74843 8.09908C6.89192 8.62872 6.19915 9.3856 5.74718 10.2855H3.85718V11.5712H5.28432C5.19003 11.9741 5.14289 12.3941 5.14289 12.8269C5.14289 15.9212 7.61146 18.4284 10.6629 18.4284H10.8857C12.1415 18.4284 13.1572 17.3955 13.1572 16.1226V15.9855C13.1594 15.6928 13.104 15.4026 12.9941 15.1314C12.8842 14.8601 12.7219 14.6132 12.5166 14.4046C12.3112 14.1961 12.0668 14.03 11.7973 13.916C11.5278 13.8019 11.2384 13.742 10.9458 13.7398H10.74C10.3824 13.7414 10.0327 13.8451 9.73206 14.0387C9.4314 14.2323 9.1923 14.5077 9.04289 14.8326C8.84575 15.2526 9.24004 15.6469 9.70289 15.6469C9.90861 15.6469 10.0715 15.4669 10.1657 15.2826C10.2943 15.0298 10.5557 14.8541 10.8557 14.8541H10.9543C11.0873 14.8546 11.2189 14.8815 11.3414 14.9332C11.464 14.9849 11.575 15.0603 11.6683 15.1551C11.7615 15.2499 11.8351 15.3623 11.8846 15.4857C11.9342 15.6091 11.9589 15.7411 11.9572 15.8741V16.1355C11.9572 16.7355 11.4772 17.2284 10.8857 17.2284H10.5729C9.43847 17.2137 8.35616 16.7498 7.56323 15.9384C6.7703 15.127 6.33145 14.0342 6.34289 12.8998C6.34289 12.4412 6.41146 11.9912 6.54004 11.5712H20.1429V10.2855H18.4243C18.3129 8.37408 16.7915 6.85693 14.9272 6.85693ZM7.16575 10.2855H14.2843C13.17 8.73836 11.5715 8.3655 10.8429 8.38265H10.7615C9.27861 8.38265 7.96718 9.13693 7.16146 10.2855H7.16575ZM17.3315 10.2855H15.4286V8.15122L15.5743 8.18122C16.6029 8.37836 17.2372 9.24836 17.3315 10.2855Z" fill="url(#paint0_linear_31_12795)"/>
</g>
<defs>
<linearGradient id="paint0_linear_31_12795" x1="19.5943" y1="10.8812" x2="4.10146" y2="10.8812" gradientUnits="userSpaceOnUse">
<stop offset="0.12" stop-color="#A157FD"/>
<stop offset="1" stop-color="#0AAEF3"/>
</linearGradient>
<clipPath id="clip0_31_12795">
<rect width="24" height="24" fill="white"/>
</clipPath>
</defs>
</svg>

<svg xmlns="http://www.w3.org/2000/svg" width="24" height="24" fill="none" viewBox="0 0 24 24"><g clip-path="url(#a)"><path fill="#240735" d="M0 0h24v24H0z"/><path fill="url(#b)" fill-rule="evenodd" d="M14.927 6.857h-.784v1.628c-.686-.565-1.869-1.2-3.472-1.2H10.6a5.44 5.44 0 0 0-4.852 3h-1.89v1.286h1.427a5.5 5.5 0 0 0-.141 1.256c0 3.094 2.468 5.601 5.52 5.601h.223c1.256 0 2.271-1.033 2.271-2.305v-.138a2.23 2.23 0 0 0-2.211-2.245h-.206a1.88 1.88 0 0 0-1.697 1.093c-.197.42.197.814.66.814.206 0 .369-.18.463-.364a.78.78 0 0 1 .69-.429h.098a1.005 1.005 0 0 1 1.003 1.02v.261c0 .6-.48 1.093-1.071 1.093h-.313a4.286 4.286 0 0 1-4.23-4.328c0-.459.068-.909.197-1.329h13.603v-1.285h-1.719c-.111-1.912-1.633-3.43-3.497-3.43m-7.761 3.429h7.118c-1.114-1.548-2.713-1.92-3.441-1.903h-.082c-1.482 0-2.794.754-3.6 1.903zm10.165 0H15.43V8.15l.145.03c1.029.197 1.663 1.067 1.757 2.105" clip-rule="evenodd"/></g><defs><linearGradient id="b" x1="19.594" x2="4.101" y1="10.881" y2="10.881" gradientUnits="userSpaceOnUse"><stop offset=".12" stop-color="#A157FD"/><stop offset="1" stop-color="#0AAEF3"/></linearGradient><clipPath id="a"><path fill="#fff" d="M0 0h24v24H0z"/></clipPath></defs></svg>
